packages/calcite-ui-icons/icons/square-hash-filled-area-24.svg

<?xml version="1.0" encoding="UTF-8"?><svg id="icons" xmlns="http://www.w3.org/2000/svg" viewBox="0 0 24 24"><defs><style>.cls-1{fill:none;}.cls-2{fill-rule:evenodd;}</style></defs><path class="cls-2" d="M3,9.70703l6.70703-6.70703h2.58594l-3,3h1.41406l3-3h2.58594l-3,3h1.41406l2.29297-2.29297v2.29297h1v-3c0-.55231-.44769-1-1-1H3c-.55231,0-1,.44769-1,1v14c0,.55225.44769,1,1,1h3v-1h-2.29297l2.29297-2.29297v-1.41406l-3,3v-2.58594l3-3v-1.41406l-3,3v-2.58594ZM3,3h1.29297l-1.29297,1.29297v-1.29297ZM3,5.70703l2.70703-2.70703h2.58594l-5.29297,5.29297v-2.58594ZM22,7h-14c-.55231,0-1,.44769-1,1v14c0,.55231.44769,1,1,1h14c.55231,0,1-.44769,1-1v-14c0-.55231-.44769-1-1-1ZM22,22h-14v-4h14v4ZM22,17h-14v-4h14v4ZM22,12h-14v-4h14v4Z"/><rect class="cls-1" width="24" height="24"/></svg>

<svg xmlns="http://www.w3.org/2000/svg" viewBox="0 0 24 24"><path d="M3 9.707L9.707 3h2.586l-3 3h1.414l3-3h2.586l-3 3h1.414L17 3.707V6h1V3a1 1 0 0 0-1-1H3a1 1 0 0 0-1 1v14a1 1 0 0 0 1 1h3v-1H3.707L6 14.707v-1.414l-3 3v-2.586l3-3V9.293l-3 3V9.707zM3 3h1.293L3 4.293V3zm0 2.707L5.707 3h2.586L3 8.293V5.707zM22 7H8a1 1 0 0 0-1 1v14a1 1 0 0 0 1 1h14a1 1 0 0 0 1-1V8a1 1 0 0 0-1-1zm0 15H8v-4h14v4zm0-5H8v-4h14v4zm0-5H8V8h14v4z" fill-rule="evenodd"/><path fill="none" d="M0 0h24v24H0z"/></svg>
